!!!!SEGMENT: pl-cz--iii-458--002_kuci-mateusz--symfonia-b-adagio.krn
!!!cenid: 17xx:943
!!!COM: Kuci, Mateusz
!!!COM-rismid: pe30017582
!!!CDT:
!!!CNT:
!!!OPR: Symfonia B
!!!OTL: Adagio
!!!OMV: 002
!!!PDT:
!!!AGN: Secular
!!!SMS-siglum: PL-CZ
!!!SMS-shelfmark: III-458
!!!SMS-shelfwork: 001-002 M
!!!SMS-variant:
!!!SMS-altvar:
!!!NIFC-rismid: 300000668
!!!URL-scan: http://repozytorium.nifc.pl/skany/pl-cz-nut--iii-458
!!!ONB-nifc: UWAGA: części Symfonii: Allegro, Adagio, Allegro
!!!AIN: 1 cbass 2 cor 2 oboe 1 viola 2 violn
!!!key: E-
**kern	**dynam	**kern	**dynam	**kern	**dynam	**kern	**dynam	**kern	**dynam	**kern	**dynam	**kern	**kern	**dynam	**kern	**dynam
*group3	*	*group3	*	*group3	*	*group3	*	*group2	*	*group2	*	*group1	*group1	*	*group1	*
*part9	*part9	*part8	*part8	*part7	*part7	*part6	*part6	*part5	*part5	*part4	*part4	*part3	*part2	*part2	*part1	*part1
*staff9	*	*staff8	*	*staff7	*	*staff6	*	*staff5	*	*staff4	*	*staff3	*staff2	*	*staff1	*
*I"Baſso.	*	*I"Viola	*	*I"Violino Secondo.	*	*I"Violino. Primo.	*	*I"Cornu IIdo in B	*	*I"Cornu Primo. Toni B.	*	*I"Faggotto. Obliga:	*I"Oboe Secondo.	*	*I"Oboe Primo.	*
*I'cb	*	*I'vla	*	*I'vl 2	*	*I'vl 1	*	*I'cor 2	*	*I'cor 1	*	*I'fag	*I'ob 2	*	*I'ob 1	*
*Icbass	*	*Iviola	*	*Ivioln	*	*Ivioln	*	*Icor	*	*Icor	*	*fagot	*Ioboe	*	*Ioboe	*
*ICstr	*	*ICstr	*	*ICstr	*	*ICstr	*	*ICbras	*	*ICbras	*	*ICww	*ICww	*	*ICww	*
*clefF4	*	*clefC3	*	*clefG2	*	*clefG2	*	*clefG2	*	*clefG2	*	*clefF4	*clefG2	*	*clefG2	*
*ITrd0c0	*	*	*	*	*	*	*	*ITrd5c9	*	*ITrd5c9	*	*	*	*	*	*
*k[b-e-a-]	*	*k[b-e-a-]	*	*k[b-e-a-]	*	*k[b-e-a-]	*	*k[b-e-a-]	*	*k[b-e-a-]	*	*k[b-e-a-]	*k[b-e-a-]	*	*k[b-e-a-]	*
*E-:	*	*E-:	*	*E-:	*	*E-:	*	*E-:	*	*E-:	*	*E-:	*E-:	*	*E-:	*
*M3/4	*	*M3/4	*	*M3/4	*	*M3/4	*	*M3/4	*	*M3/4	*	*M3/4	*M3/4	*	*M3/4	*
=1	=1	=1	=1	=1	=1	=1	=1	=1	=1	=1	=1	=1	=1	=1	=1	=1
*all\right	*	*all\right	*	*all\right	*	*all\right	*	*all\right	*	*all\right	*	*	*all\right	*	*all\right	*
*	*	*^	*	*	*	*	*	*	*	*	*	*	*	*	*	*
!LO:TX:t=P:problem=kolejność znaków BB- E- A-	!	!LO:TX:t=P:problem=przy kluczu błędnie B- e- G-	!	!	!	!	!	!	!LO:TX:a:t=8	!	!LO:TX:a:t=8	!	!	!LO:TX:a:t=8	!	!LO:TX:a:t=7	!
!LO:TX:a:B:t=Adagio	!	!LO:TX:a:rj:t=Adagio	!	!LO:DY:t=p&colon;	!LO:TX:a:t=Adagio.	!	!LO:TX:a:rj:t=Adagio	!	!LO:TX:a:i:t=Largetto in Dis	!	!LO:TX:a:i:t=Largetto in Dis	!	!LO:TX:t=P:problem=zgodnie z RISM "fag missing"	!LO:TX:a:i:t=Larghetto.	!	!LO:TX:a:i:t=Largetto	!
4E-\	p	8.g/L	8.B-\L	p	8.B-/L	pp	8.g/L	pp	0.r	.	0.r	.	2.ryy	0.r	.	0.r	.
.	.	16a-/Jk	16c\Jk	.	16c/Jk	.	16a-/Jk	.	.	.	.	.	.	.	.	.	.
4BB-/	.	8.f/L	8.A-\L	.	8.A-/L	.	8.f/L	.	.	.	.	.	.	.	.	.	.
.	.	16g/Jk	16B-\Jk	.	16B-/Jk	.	16g/Jk	.	.	.	.	.	.	.	.	.	.
4EE-/	.	4e-/	4G\	.	4G/	.	4e-/	.	.	.	.	.	.	.	.	.	.
=2	=2	=2	=2	=2	=2	=2	=2	=2	=2	=2	=2	=2	=2	=2	=2	=2	=2
4r	.	8.a-/L	8.f\L	.	8.f/L	.	8.a-/L	.	.	.	.	.	2.ryy	.	.	.	.
.	.	16b-/Jk	16g\Jk	.	16g/Jk	.	16b-/Jk	.	.	.	.	.	.	.	.	.	.
4BB-/	.	8.g/L	8.e-\L	.	8.e-/L	.	8.g/L	.	.	.	.	.	.	.	.	.	.
.	.	16a-/Jk	16f\Jk	.	16f/Jk	.	16a-/Jk	.	.	.	.	.	.	.	.	.	.
4BB-/	.	4f/	4d\	.	4d/	.	4f/	.	.	.	.	.	.	.	.	.	.
=3	=3	=3	=3	=3	=3	=3	=3	=3	=3	=3	=3	=3	=3	=3	=3	=3	=3
4E-\	.	8.b-/L	8.g\L	.	8.g/L	.	8.b-\L	.	.	.	.	.	2.ryy	.	.	.	.
.	.	16cc/Jk	16a-\Jk	.	16a-/Jk	.	16cc\Jk	.	.	.	.	.	.	.	.	.	.
4EE-/	.	8b-/L	8g\L	.	(8g\L	.	8b-\L	.	.	.	.	.	.	.	.	.	.
.	.	8b-/	8g\	.	8ee-\	.	(8gg\	.	.	.	.	.	.	.	.	.	.
4r	.	8b-/	8g\	.	8.b-\	.	8.ee-\	.	.	.	.	.	.	.	.	.	.
.	.	8b-/J	8g\J	.	.	.	.	.	.	.	.	.	.	.	.	.	.
.	.	.	.	.	16g\Jk)	.	16b-\Jk)	.	.	.	.	.	.	.	.	.	.
=4	=4	=4	=4	=4	=4	=4	=4	=4	=4	=4	=4	=4	=4	=4	=4	=4	=4
.	.	8qqb-/	8qqg\	.	8qqg/	.	8qqb-/	.	.	.	.	.	.	.	.	.	.
4BB-/	.	4a-/	4f\	.	(4f/	.	4a-/	.	.	.	.	.	2.ryy	.	.	.	.
8E-\L	.	4g/	4e-\	.	4e-/)	.	4g/	.	.	.	.	.	.	.	.	.	.
8BB-\	.	.	.	.	.	.	.	.	.	.	.	.	.	.	.	.	.
8GG\	.	4r	4ryy	.	4r	.	4r	.	.	.	.	.	.	.	.	.	.
8EE-\J	.	.	.	.	.	.	.	.	.	.	.	.	.	.	.	.	.
!	!	!LO:LB:g=original	!	!	!	!	!	!	!	!	!	!	!	!	!	!	!
=5	=5	=5	=5	=5	=5	=5	=5	=5	=5	=5	=5	=5	=5	=5	=5	=5	=5
4AA-X/	.	4r	4ryy	.	4r	.	(8cc\L	.	0.r	.	0.r	.	2.ryy	0.r	.	1.r	.
.	.	.	.	.	.	.	8een\	.	.	.	.	.	.	.	.	.	.
4r	.	4r	4ryy	.	4r	.	8ff\	.	.	.	.	.	.	.	.	.	.
.	.	.	.	.	.	.	8gg\J)	.	.	.	.	.	.	.	.	.	.
8.r	.	8.r	8.ryy	.	8.r	.	8.aa-\L	.	.	.	.	.	.	.	.	.	.
!LO:N:vis=8	!	!	!	!	!	!	!	!	!	!	!	!	!	!	!	!	!
!LO:TX:t=P:problem=♭ nad nutą	!	!	!	!	!	!	!	!	!	!	!	!	!	!	!	!	!
16A-X\	.	16cc/	16a-\	.	16a-/	.	16cc\Jk	.	.	.	.	.	.	.	.	.	.
=6	=6	=6	=6	=6	=6	=6	=6	=6	=6	=6	=6	=6	=6	=6	=6	=6	=6
4G\	.	4b-/	4g\	.	4g/	.	(8b-\L	.	.	.	.	.	2.ryy	.	.	.	.
.	.	.	.	.	.	.	8dd\	.	.	.	.	.	.	.	.	.	.
4r	.	4r	4ryy	.	4r	.	8ee-\	.	.	.	.	.	.	.	.	.	.
.	.	.	.	.	.	.	8ff\	.	.	.	.	.	.	.	.	.	.
8.r	.	8.r	8.ryy	.	8.r	.	8.gg\	.	.	.	.	.	.	.	.	.	.
16E-\	.	16b-/	16g\	.	16g/	.	16b-\Jk)	.	.	.	.	.	.	.	.	.	.
!	!	!	!	!	!LO:LB:g=original	!	!LO:LB:g=original	!	!	!	!	!	!	!	!	!	!
=7	=7	=7	=7	=7	=7	=7	=7	=7	=7	=7	=7	=7	=7	=7	=7	=7	=7
(4E-\	.	4b-/	(4g\	.	(4g/	.	4b-/	.	.	.	.	.	2.ryy	.	.	2.r	.
4D\)	.	4a-/	4f\)	.	4f/)	.	4a-/	.	.	.	.	.	.	.	.	.	.
4E-\|	.	4g/	4e-\	.	4e-/|	.	4g/	.	.	.	.	.	.	.	.	.	.
=8	=8	=8	=8	=8	=8	=8	=8	=8	=8	=8	=8	=8	=8	=8	=8	=8	=8
.	.	16qqe-/LL	16qqc\LL	.	16qqc/LL	.	(16qqe-/LL	.	.	.	.	.	.	.	.	.	.
.	.	16qqf/JJ	16qqd\JJ	.	16qqd/JJ	.	16qqf/JJ)	.	.	.	.	.	.	.	.	.	.
4B-\	.	8g/L	8e-\L	.	(8e-/L	.	(8g/L	.	.	.	.	.	2.ryy	.	.	4r	.
.	.	8f/	8d\	.	8d/	.	8f/	.	.	.	.	.	.	.	.	.	.
4BB-/	.	8e-/	8c\	.	8c/	.	8e-/	.	.	.	.	.	.	.	.	8r	.
.	.	8d/	8B-\	.	8B-/	.	8d/	.	.	.	.	.	.	.	.	(8dd\L	.
4r	.	8e-/	8c\	.	8c/	.	8e-/	.	.	.	.	.	.	.	.	8ee-\	p
.	.	8f/J	8d\J	.	8d/J)	.	8f/J)	.	.	.	.	.	.	.	.	8ff\J)	.
*	*	*v	*v	*	*	*	*	*	*	*	*	*	*	*	*	*	*
=9	=9	=9	=9	=9	=9	=9	=9	=9	=9	=9	=9	=9	=9	=9	=9	=9
!	!	!	!LO:DY:t=for&colon;	!	!LO:DY:rj:t=for&colon;	!	!LO:DY:t=for&colon;	!	!LO:DY:t=for	!	!LO:DY:rj:t=for	!	!	!	!	!LO:DY:t=for
4E-\	ff	4e-\	f	8.B-/L	f	8.g/L	f	4e-\	f	8.g\L	f	2.ryy	8.b-\L	.	8.gg\L	f
.	.	.	.	16c/Jk	.	16a-/Jk	.	.	.	16a-\Jk	.	.	16cc\Jk	.	16aa-\K	.
4BB-/	.	4B-\	.	8.A-/L	.	8.f/L	.	4B-/	.	8.f\L	.	.	8.a-/L	.	8.ff\	.
.	.	.	.	16B-/Jk	.	16g/Jk	.	.	.	16g\Jk	.	.	16b-/Jk	.	16gg\Jk	.
4EE-/	.	4E-/	.	4G/	.	4e-/	.	4E-/	.	4e-\	.	.	4g/	.	4ee-\	.
=10	=10	=10	=10	=10	=10	=10	=10	=10	=10	=10	=10	=10	=10	=10	=10	=10
4r	.	4B-/	.	8.f/L	.	8.a-/L	.	8.f\L	.	8.a-\L	.	2.ryy	8.ff\L	.	8.aa-\L	.
.	.	.	.	16g/Jk	.	16b-/Jk	.	16g\Jk	.	16b-\Jk	.	.	16gg\Jk	.	16bb-\K	.
4B-\	.	4b-\	.	8.e-/L	.	8.g/L	.	8.e-\L	.	8.g\L	.	.	8.ee-\L	.	8.gg\	.
.	.	.	.	16f/Jk	.	16a-/Jk	.	16f\Jk	.	16a-\Jk	.	.	16ff\Jk	.	16aa-\Jk	.
4BB-/	.	4B-/	.	4d/	.	4f/	.	4B-/	.	4f\	.	.	4dd\	.	4ff\	.
=11	=11	=11	=11	=11	=11	=11	=11	=11	=11	=11	=11	=11	=11	=11	=11	=11
4E-\	.	4e-\	.	8.g/L	.	8.b-\L	.	8.g\L	.	8.b-\L	.	2.ryy	8.gg\L	.	8.bb-\L	.
.	.	.	.	16a-/Jk	.	16cc\Jk	.	16a-\Jk	.	16cc\Jk	.	.	16aa-X\Jk	.	16ccc\Jk	.
4EE-/	.	4e-\	.	8g\L	.	8b-\L	.	8g\L	.	8b-\L	.	.	8gg\L	.	8bb-\L	.
.	.	.	.	8ee-\	.	(8gg\	.	8g\	.	8b-\	.	.	8gg\	.	8bb-\	.
4r	.	4r	.	8b-\	.	8.ee-\	.	8g\	.	8b-\	.	.	8gg\	.	8bb-\	.
.	.	.	.	8g\J	.	.	.	8g\J	.	8b-\J	.	.	8gg\J	.	8bb-\J	.
.	.	.	.	.	.	16b-\Jk)	.	.	.	.	.	.	.	.	.	.
!	!	!LO:LB:g=original	!	!	!	!	!	!	!	!	!	!	!	!	!	!
=12	=12	=12	=12	=12	=12	=12	=12	=12	=12	=12	=12	=12	=12	=12	=12	=12
.	.	.	.	8qqg/	.	8qqb-/	.	8qqg/	.	8qqb-/	.	.	8qqgg/	.	8qqbb-/	.
4BB-/	.	4B-/	.	4f/	.	4a-/	.	4f\	.	4a-\	.	2.ryy	4ff\	.	4aa-\	.
8E-\L	.	8e-\L	.	4e-/	.	4g/	.	4e-\	.	4g\	.	.	4ee-\	.	4gg\	.
8B-\	.	8b-\	.	.	.	.	.	.	.	.	.	.	.	.	.	.
8G\	.	8g\	.	4r	.	4r	.	4r	.	4r	.	.	4r	.	4r	.
8E-\J	.	8e-\J	.	.	.	.	.	.	.	.	.	.	.	.	.	.
!	!	!	!	!LO:LB:g=original	!	!	!	!LO:LB:g=original	!	!	!	!	!	!	!LO:LB:g=original	!
=13	=13	=13	=13	=13	=13	=13	=13	=13	=13	=13	=13	=13	=13	=13	=13	=13
!	!	!	!	!	!LO:DY:rj	!	!LO:DY:t=p&colon;	!LO:TX:a:t=2	!	!LO:TX:a:t=2	!	!	!LO:TX:a:t=2	!	!LO:TX:a:t=2	!
4A-X\	.	4a-X\	.	8c/L	p	(8cc\L	p	1.r	.	1.r	.	2.ryy	1.r	.	1.r	.
.	.	.	.	8en/	.	8een\	.	.	.	.	.	.	.	.	.	.
4r	.	4r	.	8f/	.	8ff\	.	.	.	.	.	.	.	.	.	.
.	.	.	.	8g/	.	8gg\	.	.	.	.	.	.	.	.	.	.
!	!	!	!	!	!	!LO:TX:t=P:problem=♭ above	!	!	!	!	!	!	!	!	!	!
4r	.	4r	.	8a-X/	.	8aa-X\	.	.	.	.	.	.	.	.	.	.
.	.	.	.	8b-/J	.	8bb-\J)	.	.	.	.	.	.	.	.	.	.
!	!	!	!	!	!	!LO:LB:g=original	!	!	!	!	!	!	!	!	!	!
=14	=14	=14	=14	=14	=14	=14	=14	=14	=14	=14	=14	=14	=14	=14	=14	=14
.	.	.	.	.	.	8qqcc/	.	.	.	.	.	.	.	.	.	.
*	*	*2\right	*	*	*	*	*	*	*	*	*	*	*	*	*	*
2.A-\	.	2.a-\	.	4cc\	.	4ccc\	.	.	.	.	.	2.ryy	.	.	.	.
.	.	.	.	(8b-\L	.	8bb-\L	.	.	.	.	.	.	.	.	.	.
.	.	.	.	8a-\	.	8aa-\	.	.	.	.	.	.	.	.	.	.
.	.	.	.	8g\	.	8gg\	.	.	.	.	.	.	.	.	.	.
.	.	.	.	8f\J)	.	8ff\J	.	.	.	.	.	.	.	.	.	.
!	!	!	!	!	!	!	!	!	!	!LO:LB:g=original	!	!	!	!	!	!
=15	=15	=15	=15	=15	=15	=15	=15	=15	=15	=15	=15	=15	=15	=15	=15	=15
!	!	!	!	!	!LO:DY:t=for	!	!	!	!	!	!	!	!	!	!	!
.	.	.	.	8qqg/	f	8qqgg/	.	.	.	.	.	.	.	.	.	.
!	!	!	!	!	!	!	!LO:DY:t=for	!	!	!	!	!	!	!	!	!
4B-\	.	(2b-\	.	8.gg\L	.	8.bb-\L	f	4r	.	4r	.	2.ryy	4r	.	4r	.
.	.	.	.	16ee-\Jk	.	16gg\Jk	.	.	.	.	.	.	.	.	.	.
4B-\	.	.	.	4g/	.	4ee-\	.	4E-/	.	4e-\	.	.	4ee-\	.	(4gg\	.
.	.	.	.	8qqb-/	.	8qqgg/	.	.	.	.	.	.	.	.	.	.
4BB-/	.	4a-X\)	.	4a-/	.	4ff\	.	4B-/	.	4f\	.	.	4b-\	.	4ff\)	.
.	.	.	.	.	.	.	.	.	.	.	.	.	8qqa-/	.	.	.
=16	=16	=16	=16	=16	=16	=16	=16	=16	=16	=16	=16	=16	=16	=16	=16	=16
.	.	8qqa-/	.	8qqa-/	.	.	.	.	.	.	.	.	.	.	8qqff/	.
4E-\	.	4g\	.	4g 4B-/	.	4ee-\	.	4E-/	.	4e-\	.	2.ryy	4g/	.	4ee-\	.
8EE-/L	.	4g\	.	4g 4B-/	.	4e-/	.	4E-/	.	4e-\	.	.	4g/	.	4ee-\	.
8GG/	.	.	.	.	.	.	.	.	.	.	.	.	.	.	.	.
8BB-/	.	4r	.	4r	.	4r	.	4r	.	4r	.	.	4r	.	4r	.
8GG/J	.	.	.	.	.	.	.	.	.	.	.	.	.	.	.	.
!	!	!	!	!	!	!	!	!	!	!	!	!	!LO:LB:g=original	!	!	!
=17	=17	=17	=17	=17	=17	=17	=17	=17	=17	=17	=17	=17	=17	=17	=17	=17
!LO:TX:t=P:problem=mixed beam	!	!	!LO:DY:t=pia&colon;	!	!	!	!LO:DY:t=p&colon;	!LO:TX:a:t=30	!	!LO:TX:a:t=30	!	!	!LO:TX:a:t=30	!	!LO:TX:a:t=30	!
8EE-/L	p	8r	p	8r	.	4.b-\	p	0.r	.	0.r	.	2.ryy	0.r	.	0.r	.
8E-/	.	(8g\L	.	(8b-\L	.	.	.	.	.	.	.	.	.	.	.	.
8E-/	.	8g\	.	8b-'\	.	.	.	.	.	.	.	.	.	.	.	.
8E-/	.	8g\	.	8b-'\	.	(16cc\LL	.	.	.	.	.	.	.	.	.	.
.	.	.	.	.	.	16b-\JJ)	.	.	.	.	.	.	.	.	.	.
8E-/	.	8g\	.	8b-'\	.	8gg\L	.	.	.	.	.	.	.	.	.	.
8E-/J	.	8g\J)	.	8b-'\J)	.	8gg\J	.	.	.	.	.	.	.	.	.	.
=18	=18	=18	=18	=18	=18	=18	=18	=18	=18	=18	=18	=18	=18	=18	=18	=18
*tremolo	*	*	*	*	*	*	*	*	*	*	*	*	*	*	*	*
8D\L	.	8r	.	8r	.	(16gg\LL	.	.	.	.	.	2.ryy	.	.	.	.
.	.	.	.	.	.	16ff\	.	.	.	.	.	.	.	.	.	.
8D\	.	(8f\L	.	(8b-\L	.	16een\	.	.	.	.	.	.	.	.	.	.
.	.	.	.	.	.	16ff\JJ)	.	.	.	.	.	.	.	.	.	.
8D\	.	8f\	.	8b-\	.	4ff\	.	.	.	.	.	.	.	.	.	.
8D\	.	8f\	.	8b-\	.	.	.	.	.	.	.	.	.	.	.	.
8D\	.	8f\	.	8b-\	.	4r	.	.	.	.	.	.	.	.	.	.
8D\J	.	8f\J)	.	8b-\J)	.	.	.	.	.	.	.	.	.	.	.	.
!	!	!	!	!LO:LB:g=original	!	!	!	!	!	!	!	!	!	!	!	!
=19	=19	=19	=19	=19	=19	=19	=19	=19	=19	=19	=19	=19	=19	=19	=19	=19
.	.	.	.	.	.	(16qqdd/LL	.	.	.	.	.	.	.	.	.	.
.	.	.	.	.	.	16qqff/JJ)	.	.	.	.	.	.	.	.	.	.
8AA-/L	.	8r	.	8r	.	4.ee-\	.	.	.	.	.	2.ryy	.	.	.	.
8AA-/	.	(8f\L	.	(8cc\L	.	.	.	.	.	.	.	.	.	.	.	.
8AA-/	.	8f\	.	8cc\	.	.	.	.	.	.	.	.	.	.	.	.
8AA-/	.	8f\	.	8cc\	.	16ccc\LL	.	.	.	.	.	.	.	.	.	.
.	.	.	.	.	.	16bb-\JJ	.	.	.	.	.	.	.	.	.	.
8AA-/	.	8f\	.	8cc\	.	16aa-\LL	.	.	.	.	.	.	.	.	.	.
.	.	.	.	.	.	16gg\	.	.	.	.	.	.	.	.	.	.
8AA-/J	.	8f\J)	.	8cc\J)	.	16ff\	.	.	.	.	.	.	.	.	.	.
.	.	.	.	.	.	16ee-\JJ	.	.	.	.	.	.	.	.	.	.
!	!	!	!	!	!	!LO:LB:g=original	!	!	!	!	!	!	!	!	!	!
=20	=20	=20	=20	=20	=20	=20	=20	=20	=20	=20	=20	=20	=20	=20	=20	=20
.	.	.	.	.	.	(16qqee-/LL	.	.	.	.	.	.	.	.	.	.
.	.	.	.	.	.	16qqdd/JJ)	.	.	.	.	.	.	.	.	.	.
8BB-/L	.	8r	.	8r	.	(8cc#X\L	.	.	.	.	.	2.ryy	.	.	.	.
8BB-/	.	(8f\L	.	(8dd\L	.	8dd\J)	.	.	.	.	.	.	.	.	.	.
8BB-/	.	8f\	.	8dd\	.	4dd\	.	.	.	.	.	.	.	.	.	.
8BB-/	.	8f\	.	8dd\	.	.	.	.	.	.	.	.	.	.	.	.
8BB-/	.	8f\	.	8dd\	.	4r	.	.	.	.	.	.	.	.	.	.
8BB-/J	.	8f\J)	.	8dd\J)	.	.	.	.	.	.	.	.	.	.	.	.
*Xtremolo	*	*	*	*	*	*	*	*	*	*	*	*	*	*	*	*
!	!	!LO:LB:g=original	!	!	!	!	!	!	!	!	!	!	!	!	!	!
=21	=21	=21	=21	=21	=21	=21	=21	=21	=21	=21	=21	=21	=21	=21	=21	=21
4r	.	4r	.	4r	.	16dd\LL	.	0.r	.	0.r	.	2.ryy	0.r	.	0.r	.
.	.	.	.	.	.	(16ee-X\	.	.	.	.	.	.	.	.	.	.
.	.	.	.	.	.	16bn\	.	.	.	.	.	.	.	.	.	.
.	.	.	.	.	.	16cc\JJ)	.	.	.	.	.	.	.	.	.	.
8r	.	8r	.	8r	.	4cc\	.	.	.	.	.	.	.	.	.	.
8E-\L	.	(8g\L	.	(8cc\L	.	.	.	.	.	.	.	.	.	.	.	.
8E-\	.	8g\	.	8cc'\	.	4r	.	.	.	.	.	.	.	.	.	.
8E-\J	.	8g\J)	.	8cc'\J)	.	.	.	.	.	.	.	.	.	.	.	.
=22	=22	=22	=22	=22	=22	=22	=22	=22	=22	=22	=22	=22	=22	=22	=22	=22
4r	.	4r	.	4r	.	16dd\LL	.	.	.	.	.	2.ryy	.	.	.	.
.	.	.	.	.	.	16ee-X\	.	.	.	.	.	.	.	.	.	.
.	.	.	.	.	.	16bn\	.	.	.	.	.	.	.	.	.	.
.	.	.	.	.	.	16cc\JJ	.	.	.	.	.	.	.	.	.	.
8r	.	8r	.	8r	.	4cc\	.	.	.	.	.	.	.	.	.	.
8E-\L	.	(8g\L	.	(8cc'\L	.	.	.	.	.	.	.	.	.	.	.	.
8E-\	.	8g\	.	8cc'\	.	4r	.	.	.	.	.	.	.	.	.	.
8E-\J	.	8g\J)	.	8cc'\J)	.	.	.	.	.	.	.	.	.	.	.	.
!	!	!	!	!LO:LB:g=original	!	!	!	!	!	!	!	!	!	!	!	!
=23	=23	=23	=23	=23	=23	=23	=23	=23	=23	=23	=23	=23	=23	=23	=23	=23
.	.	.	.	.	.	8qqg/	.	.	.	.	.	.	.	.	.	.
(2E-\	.	2.g\	.	4cc\	.	4.gg\	.	.	.	.	.	2.ryy	.	.	.	.
.	.	.	.	(4c/	.	.	.	.	.	.	.	.	.	.	.	.
*	*	*	*	*	*	*Xtuplet	*	*	*	*	*	*	*	*	*	*
!	!	!	!	!	!	!	!	!	!	!	!	!	!	!	!	!
.	.	.	.	.	.	24aa-\LL	.	.	.	.	.	.	.	.	.	.
.	.	.	.	.	.	24bb-\	.	.	.	.	.	.	.	.	.	.
.	.	.	.	.	.	24aa-\JJ	.	.	.	.	.	.	.	.	.	.
.	.	.	.	.	.	8qqccc/	.	.	.	.	.	.	.	.	.	.
4En\)	.	.	.	4B-/)	.	8.bb-\L	.	.	.	.	.	.	.	.	.	.
.	.	.	.	.	.	16dd\Jk	.	.	.	.	.	.	.	.	.	.
=24	=24	=24	=24	=24	=24	=24	=24	=24	=24	=24	=24	=24	=24	=24	=24	=24
.	.	.	.	.	.	16qqdd/LL	.	.	.	.	.	.	.	.	.	.
.	.	.	.	.	.	16qqff/JJ	.	.	.	.	.	.	.	.	.	.
(4F\	.	4f\	.	4B-/|	.	8.ff\L	.	.	.	.	.	2.ryy	.	.	.	.
.	.	.	.	.	.	16dd\Jk	.	.	.	.	.	.	.	.	.	.
4FF/	.	4F/	.	(4A-/	.	4cc\	.	.	.	.	.	.	.	.	.	.
!	!	!	!	!LO:TX:a:B:t=t	!	!	!	!	!	!	!	!	!	!	!	!
4GG/)	.	4G/	.	4B-/)	.	4r	.	.	.	.	.	.	.	.	.	.
=25	=25	=25	=25	=25	=25	=25	=25	=25	=25	=25	=25	=25	=25	=25	=25	=25
(2AA-/	.	[2.F/	.	(2c/	.	16en/LL	.	0.r	.	0.r	.	2.ryy	0.r	.	0.r	.
.	.	.	.	.	.	16f/	.	.	.	.	.	.	.	.	.	.
.	.	.	.	.	.	16g/	.	.	.	.	.	.	.	.	.	.
.	.	.	.	.	.	16f/JJ	.	.	.	.	.	.	.	.	.	.
.	.	.	.	.	.	16e/LL	.	.	.	.	.	.	.	.	.	.
.	.	.	.	.	.	16f/	.	.	.	.	.	.	.	.	.	.
.	.	.	.	.	.	16e-X/	.	.	.	.	.	.	.	.	.	.
.	.	.	.	.	.	16f/JJ	.	.	.	.	.	.	.	.	.	.
!	!	!	!	!	!	!LO:LB:g=original	!	!	!	!	!	!	!	!	!	!
8BB-/L	.	.	.	8B-/L	.	(16d/LL	.	.	.	.	.	.	.	.	.	.
.	.	.	.	.	.	16f/	.	.	.	.	.	.	.	.	.	.
8C/J)	.	.	.	8A-/J)	.	16c/	.	.	.	.	.	.	.	.	.	.
.	.	.	.	.	.	16f/JJ)	.	.	.	.	.	.	.	.	.	.
=26	=26	=26	=26	=26	=26	=26	=26	=26	=26	=26	=26	=26	=26	=26	=26	=26
2.BB-/	.	2.F/]	.	2.d/	.	16d/LL|	.	.	.	.	.	2.ryy	.	.	.	.
.	.	.	.	.	.	(16f/	.	.	.	.	.	.	.	.	.	.
.	.	.	.	.	.	16en/	.	.	.	.	.	.	.	.	.	.
.	.	.	.	.	.	16f/JJ)	.	.	.	.	.	.	.	.	.	.
.	.	.	.	.	.	16b-/LL|	.	.	.	.	.	.	.	.	.	.
.	.	.	.	.	.	(16f/	.	.	.	.	.	.	.	.	.	.
.	.	.	.	.	.	16en/	.	.	.	.	.	.	.	.	.	.
.	.	.	.	.	.	16f/JJ)	.	.	.	.	.	.	.	.	.	.
.	.	.	.	.	.	16dd\LL|	.	.	.	.	.	.	.	.	.	.
.	.	.	.	.	.	(16b-\	.	.	.	.	.	.	.	.	.	.
!	!	!	!	!	!	!LO:SIC:v:s=16an	!	!	!	!	!	!	!	!	!	!
.	.	.	.	.	.	16a-\	.	.	.	.	.	.	.	.	.	.
.	.	.	.	.	.	16b-\JJ)	.	.	.	.	.	.	.	.	.	.
=27	=27	=27	=27	=27	=27	=27	=27	=27	=27	=27	=27	=27	=27	=27	=27	=27
*	*	*	*	*2\right	*	*	*	*	*	*	*	*	*	*	*	*
2A-\	.	2.f\	.	2cc\	.	16een\LL	.	.	.	.	.	2.ryy	.	.	.	.
.	.	.	.	.	.	(16ff\	.	.	.	.	.	.	.	.	.	.
.	.	.	.	.	.	16gg\	.	.	.	.	.	.	.	.	.	.
.	.	.	.	.	.	16ff\JJ)	.	.	.	.	.	.	.	.	.	.
.	.	.	.	.	.	16ee\LL	.	.	.	.	.	.	.	.	.	.
.	.	.	.	.	.	16ff\	.	.	.	.	.	.	.	.	.	.
.	.	.	.	.	.	(16ee-X\	.	.	.	.	.	.	.	.	.	.
.	.	.	.	.	.	16ff\JJ	.	.	.	.	.	.	.	.	.	.
(8B-\L	.	.	.	(8b-\L	.	16dd\LL	.	.	.	.	.	.	.	.	.	.
.	.	.	.	.	.	16ff\	.	.	.	.	.	.	.	.	.	.
8c\J)	.	.	.	8a-\J)	.	16cc\	.	.	.	.	.	.	.	.	.	.
.	.	.	.	.	.	16ff\JJ)	.	.	.	.	.	.	.	.	.	.
=28	=28	=28	=28	=28	=28	=28	=28	=28	=28	=28	=28	=28	=28	=28	=28	=28
2.B-\	.	2.f\	.	2.b-\	.	16dd\LL	.	.	.	.	.	2.ryy	.	.	.	.
.	.	.	.	.	.	16ff\	.	.	.	.	.	.	.	.	.	.
.	.	.	.	.	.	16een\	.	.	.	.	.	.	.	.	.	.
.	.	.	.	.	.	16ff\JJ	.	.	.	.	.	.	.	.	.	.
.	.	.	.	.	.	16bb-\LL	.	.	.	.	.	.	.	.	.	.
.	.	.	.	.	.	16ff\	.	.	.	.	.	.	.	.	.	.
.	.	.	.	.	.	16een\	.	.	.	.	.	.	.	.	.	.
.	.	.	.	.	.	16ff\JJ	.	.	.	.	.	.	.	.	.	.
.	.	.	.	.	.	16ddd\LL	.	.	.	.	.	.	.	.	.	.
.	.	.	.	.	.	16bb-\	.	.	.	.	.	.	.	.	.	.
!	!	!	!	!	!	!LO:SIC:v:s=16aan	!	!	!	!	!	!	!	!	!	!
.	.	.	.	.	.	16aa-\	.	.	.	.	.	.	.	.	.	.
.	.	.	.	.	.	16bb-\JJ	.	.	.	.	.	.	.	.	.	.
!	!	!	!	!	!	!LO:LB:g=original	!	!	!	!	!	!	!	!	!	!
=29	=29	=29	=29	=29	=29	=29	=29	=29	=29	=29	=29	=29	=29	=29	=29	=29
.	.	.	.	.	.	8qqff/	.	.	.	.	.	.	.	.	.	.
4D\	.	4f\	.	4b-\	.	4.fff\	.	0.r	.	0.r	.	2.ryy	0.r	.	0.r	.
4D\	.	4f\	.	4b-\	.	.	.	.	.	.	.	.	.	.	.	.
.	.	.	.	.	.	24eee-X\LL	.	.	.	.	.	.	.	.	.	.
.	.	.	.	.	.	24ddd\	.	.	.	.	.	.	.	.	.	.
.	.	.	.	.	.	24ccc\JJ	.	.	.	.	.	.	.	.	.	.
4D\	.	4f\	.	4b-\	.	8.bb-\L	.	.	.	.	.	.	.	.	.	.
.	.	.	.	.	.	16aa-X\Jk	.	.	.	.	.	.	.	.	.	.
!	!	!	!	!LO:LB:g=original	!	!	!	!	!	!	!	!	!	!	!	!
=30	=30	=30	=30	=30	=30	=30	=30	=30	=30	=30	=30	=30	=30	=30	=30	=30
2.E-\	.	2.g\	.	2.b-\	.	16aa-\LL	.	.	.	.	.	2.ryy	.	.	.	.
.	.	.	.	.	.	(16gg\	.	.	.	.	.	.	.	.	.	.
.	.	.	.	.	.	16ff#X\	.	.	.	.	.	.	.	.	.	.
.	.	.	.	.	.	16gg\JJ)	.	.	.	.	.	.	.	.	.	.
.	.	.	.	.	.	4.gg\	.	.	.	.	.	.	.	.	.	.
.	.	.	.	.	.	24ff#X\LL	.	.	.	.	.	.	.	.	.	.
.	.	.	.	.	.	24gg\	.	.	.	.	.	.	.	.	.	.
.	.	.	.	.	.	24ff#\JJ	.	.	.	.	.	.	.	.	.	.
=31	=31	=31	=31	=31	=31	=31	=31	=31	=31	=31	=31	=31	=31	=31	=31	=31
4E-\	.	4g\	.	4cc\	.	16gg\LL	.	.	.	.	.	2.ryy	.	.	.	.
.	.	.	.	.	.	16ee-X\	.	.	.	.	.	.	.	.	.	.
.	.	.	.	.	.	16dd\	.	.	.	.	.	.	.	.	.	.
.	.	.	.	.	.	16cc\JJ	.	.	.	.	.	.	.	.	.	.
4E-\	.	4g\	.	4cc\	.	16bn\LL	.	.	.	.	.	.	.	.	.	.
.	.	.	.	.	.	16cc\	.	.	.	.	.	.	.	.	.	.
.	.	.	.	.	.	16b\	.	.	.	.	.	.	.	.	.	.
.	.	.	.	.	.	16cc\JJ	.	.	.	.	.	.	.	.	.	.
[4E-\	.	4g\	.	4cc\	.	(16ee-\LL	.	.	.	.	.	.	.	.	.	.
.	.	.	.	.	.	16dd\	.	.	.	.	.	.	.	.	.	.
.	.	.	.	.	.	16ff\	.	.	.	.	.	.	.	.	.	.
.	.	.	.	.	.	16ee-\JJ)	.	.	.	.	.	.	.	.	.	.
=32	=32	=32	=32	=32	=32	=32	=32	=32	=32	=32	=32	=32	=32	=32	=32	=32
.	.	.	.	.	.	8qqff#X/	.	.	.	.	.	.	.	.	.	.
4E-\]	.	4g\	.	4cc\	.	4gg\	.	.	.	.	.	2.ryy	.	.	.	.
4r	.	4r	.	4r	.	4r	.	.	.	.	.	.	.	.	.	.
4r	.	4r	.	4r	.	4r	.	.	.	.	.	.	.	.	.	.
!	!	!LO:LB:g=original	!	!	!	!	!	!	!	!	!	!	!	!	!	!
=33	=33	=33	=33	=33	=33	=33	=33	=33	=33	=33	=33	=33	=33	=33	=33	=33
!LO:TX:a:t=1	!	!LO:TX:a:t=1	!	!LO:TX:a:t=1	!	!	!	!	!	!	!	!	!	!	!	!
2.r	.	2.r	.	2.r	.	(16gg\LL	.	0.r	.	0.r	.	2.ryy	0.r	.	0.r	.
.	.	.	.	.	.	16ff#X\	.	.	.	.	.	.	.	.	.	.
.	.	.	.	.	.	16gg\	.	.	.	.	.	.	.	.	.	.
!	!	!	!	!	!	!LO:TX:t=P:problem=♮ above	!	!	!	!	!	!	!	!	!	!
.	.	.	.	.	.	16aan\JJ)	.	.	.	.	.	.	.	.	.	.
!	!	!	!	!	!	!LO:LB:g=original	!	!	!	!	!	!	!	!	!	!
.	.	.	.	.	.	16bb-\LL	.	.	.	.	.	.	.	.	.	.
.	.	.	.	.	.	16aa\	.	.	.	.	.	.	.	.	.	.
.	.	.	.	.	.	16gg\	.	.	.	.	.	.	.	.	.	.
!	!	!	!	!	!	!LO:TX:t=P:problem=♮ above	!	!	!	!	!	!	!	!	!	!
.	.	.	.	.	.	16ffn\JJ	.	.	.	.	.	.	.	.	.	.
.	.	.	.	.	.	16ee-X\LL	.	.	.	.	.	.	.	.	.	.
.	.	.	.	.	.	16dd\	.	.	.	.	.	.	.	.	.	.
.	.	.	.	.	.	16cc\	.	.	.	.	.	.	.	.	.	.
.	.	.	.	.	.	16b-\JJ	.	.	.	.	.	.	.	.	.	.
=34	=34	=34	=34	=34	=34	=34	=34	=34	=34	=34	=34	=34	=34	=34	=34	=34
4r	.	2.f\	.	4r	.	4f/	.	.	.	.	.	2.ryy	.	.	.	.
4F\	.	.	.	4.f/	.	4.dd\	.	.	.	.	.	.	.	.	.	.
4FF/	.	.	.	.	.	.	.	.	.	.	.	.	.	.	.	.
!	!	!	!	!	!	!LO:TX:a:B:t=t	!	!	!	!	!	!	!	!	!	!
.	.	.	.	8e-/	.	8cc\	.	.	.	.	.	.	.	.	.	.
!	!	!	!	!LO:LB:g=original	!	!	!	!	!	!	!	!	!	!	!	!
=35	=35	=35	=35	=35	=35	=35	=35	=35	=35	=35	=35	=35	=35	=35	=35	=35
!	!	!	!LO:DY:t=for	!	!LO:DY:t=for&colon;	!	!LO:DY:t=for&colon;	!	!	!	!	!	!	!	!	!
2.BB-/	f	[2.B-/	f	16d/LL	f	16b-\LL|	f	.	.	.	.	2.ryy	.	.	.	.
.	.	.	.	16B-/	.	(16b-\	.	.	.	.	.	.	.	.	.	.
.	.	.	.	16A-/	.	16a-\	.	.	.	.	.	.	.	.	.	.
.	.	.	.	16B-/JJ	.	16b-\JJ)	.	.	.	.	.	.	.	.	.	.
.	.	.	.	16f/LL|	.	16ff\LL|	.	.	.	.	.	.	.	.	.	.
.	.	.	.	(16f/	.	(16ff\	.	.	.	.	.	.	.	.	.	.
.	.	.	.	16en/	.	16een\	.	.	.	.	.	.	.	.	.	.
!	!	!	!	!	!	!LO:TX:t=P:problem=kreska taktowa	!	!	!	!	!	!	!	!	!	!
.	.	.	.	16f/JJ)	.	16ff\JJ)	.	.	.	.	.	.	.	.	.	.
.	.	.	.	16a-X/LL	.	16aa-X\LL	.	.	.	.	.	.	.	.	.	.
.	.	.	.	16a-/	.	(16aa-\	.	.	.	.	.	.	.	.	.	.
.	.	.	.	16g/	.	16gg\	.	.	.	.	.	.	.	.	.	.
.	.	.	.	16a-/JJ	.	16aa-\JJ)	.	.	.	.	.	.	.	.	.	.
=36	=36	=36	=36	=36	=36	=36	=36	=36	=36	=36	=36	=36	=36	=36	=36	=36
2.BB-/	.	2.B-/]	.	16g/LL|	.	16gg\LL|	.	.	.	.	.	2.ryy	.	.	.	.
.	.	.	.	(16g/	.	16gg\	.	.	.	.	.	.	.	.	.	.
.	.	.	.	16f#X/	.	16ff#X\	.	.	.	.	.	.	.	.	.	.
.	.	.	.	16g/JJ)	.	16gg\JJ	.	.	.	.	.	.	.	.	.	.
.	.	.	.	16e-/LL|	.	16ee-X\LL|	.	.	.	.	.	.	.	.	.	.
.	.	.	.	(16e-/	.	(16ee-\	.	.	.	.	.	.	.	.	.	.
.	.	.	.	16d/	.	16dd\	.	.	.	.	.	.	.	.	.	.
.	.	.	.	16e-/JJ)	.	16ee-\JJ)	.	.	.	.	.	.	.	.	.	.
.	.	.	.	16c/LL|	.	16cc\LL	.	.	.	.	.	.	.	.	.	.
.	.	.	.	(16c/	.	16cc\	.	.	.	.	.	.	.	.	.	.
.	.	.	.	16B-/	.	16b-\	.	.	.	.	.	.	.	.	.	.
!	!	!	!	!LO:TX:b:t=Vol&colon; Sub	!	!	!	!	!	!	!	!	!	!	!	!
!	!	!	!	!LO:TX:t=P:problem=♮ below	!	!LO:TX:b:t=VolSub	!	!	!	!	!	!	!	!	!	!
.	.	.	.	16An/JJ)	.	16an\JJ	.	.	.	.	.	.	.	.	.	.
!	!	!	!	!LO:PB:g=original	!	!LO:PB:g=original	!	!	!	!	!	!	!	!	!	!
=37	=37	=37	=37	=37	=37	=37	=37	=37	=37	=37	=37	=37	=37	=37	=37	=37
2.BB-/	.	2.B-/	.	16B-/LL|	.	16b-/LL|	.	0.r	.	0.r	.	2.ryy	0.r	.	0.r	.
.	.	.	.	(16B-/	.	(16b-/	.	.	.	.	.	.	.	.	.	.
.	.	.	.	16A-/	.	16a-/	.	.	.	.	.	.	.	.	.	.
.	.	.	.	16B-/JJ)	.	16b-/JJ)	.	.	.	.	.	.	.	.	.	.
.	.	.	.	16a-/LL|	.	16cc/LL|	.	.	.	.	.	.	.	.	.	.
.	.	.	.	16a-/	.	(16cc/	.	.	.	.	.	.	.	.	.	.
.	.	.	.	16g/	.	16b-/	.	.	.	.	.	.	.	.	.	.
.	.	.	.	16a-/JJ	.	16cc/JJ)	.	.	.	.	.	.	.	.	.	.
.	.	.	.	(16g/LL	.	16b-/LL|	.	.	.	.	.	.	.	.	.	.
.	.	.	.	16g/	.	(16b-/	.	.	.	.	.	.	.	.	.	.
.	.	.	.	16f#X/)	.	16a-/	.	.	.	.	.	.	.	.	.	.
.	.	.	.	16g/JJ	.	16b-/JJ)	.	.	.	.	.	.	.	.	.	.
=38	=38	=38	=38	=38	=38	=38	=38	=38	=38	=38	=38	=38	=38	=38	=38	=38
2.BB-/	.	2.B-/	.	16fn/LL|	.	16a-X/LL|	.	.	.	.	.	2.ryy	.	.	.	.
.	.	.	.	(16f/	.	(16a-/	.	.	.	.	.	.	.	.	.	.
.	.	.	.	16e-X/	.	16g/	.	.	.	.	.	.	.	.	.	.
.	.	.	.	16f/JJ)	.	16a-/JJ)	.	.	.	.	.	.	.	.	.	.
.	.	.	.	16e-/LL|	.	16g/LL|	.	.	.	.	.	.	.	.	.	.
.	.	.	.	(16e-/	.	(16g/	.	.	.	.	.	.	.	.	.	.
.	.	.	.	16d/	.	16f/	.	.	.	.	.	.	.	.	.	.
.	.	.	.	16e-/JJ)	.	16g/JJ)	.	.	.	.	.	.	.	.	.	.
.	.	.	.	16d/LL|	.	16f/LL|	.	.	.	.	.	.	.	.	.	.
.	.	.	.	(16d/	.	(16f/	.	.	.	.	.	.	.	.	.	.
.	.	.	.	16c/	.	16e-/	.	.	.	.	.	.	.	.	.	.
.	.	.	.	16d/JJ)	.	16f/JJ)	.	.	.	.	.	.	.	.	.	.
=39	=39	=39	=39	=39	=39	=39	=39	=39	=39	=39	=39	=39	=39	=39	=39	=39
*	*	*^	*	*	*	*	*	*	*	*	*	*	*	*	*	*
!	!	!LO:TX:b:t=b	!	!	!	!	!	!	!	!	!	!	!	!	!	!	!
!	!	!LO:N:vis=8	!	!LO:DY:t=p&colon;	!	!LO:DY:rj:t=p&colon;	!	!LO:DY:t=p&colon;	!	!	!	!	!	!	!	!	!
4E-\	p	8.g/L	8.B-\L	p	8.B-/L	p	8.g/L	p	.	.	.	.	2.ryy	.	.	.	.
!	!	!LO:TX:b:t=c	!	!	!	!	!	!	!	!	!	!	!	!	!	!	!
.	.	16a-/Jk	16c\Jk	.	16c/Jk	.	16a-/Jk	.	.	.	.	.	.	.	.	.	.
4BB-/	.	8.f/L	8.A-\L	.	8.A-/L	.	8.f/L	.	.	.	.	.	.	.	.	.	.
.	.	16g/Jk	16B-\Jk	.	16B-/Jk	.	16g/Jk	.	.	.	.	.	.	.	.	.	.
4EE-/	.	4e-/	4G\	.	4G/	.	4e-/	.	.	.	.	.	.	.	.	.	.
!	!	!	!	!	!LO:LB:g=original	!	!	!	!	!	!	!	!	!	!	!	!
=40	=40	=40	=40	=40	=40	=40	=40	=40	=40	=40	=40	=40	=40	=40	=40	=40	=40
4BB-/	.	8.a-/L	8.f\L	.	8.f/L	.	8.a-/L	.	.	.	.	.	2.ryy	.	.	.	.
.	.	16b-/Jk	16g\Jk	.	16g/Jk	.	16b-/Jk	.	.	.	.	.	.	.	.	.	.
4B-\	.	8.g/L	8.e-\L	.	8.e-/L	.	8.g/L	.	.	.	.	.	.	.	.	.	.
.	.	16a-/Jk	16f\Jk	.	16f/Jk	.	16a-/Jk	.	.	.	.	.	.	.	.	.	.
!	!	!	!	!	!	!	!LO:LB:g=original	!	!	!	!	!	!	!	!	!	!
4BB-/	.	4f/	4B-\	.	4d/	.	4f/	.	.	.	.	.	.	.	.	.	.
=41	=41	=41	=41	=41	=41	=41	=41	=41	=41	=41	=41	=41	=41	=41	=41	=41	=41
4E-\	.	8.b-/L	8.g\L	.	8.g/L	.	8.b-\L	.	0.r	.	0.r	.	2.ryy	0.r	.	0.r	.
.	.	16cc/Jk	16a-\Jk	.	16a-/Jk	.	16cc\Jk	.	.	.	.	.	.	.	.	.	.
4EE-/	.	8b-/L	8g\L	.	8g\L	.	8b-\L	.	.	.	.	.	.	.	.	.	.
.	.	8b-/	8g\	.	8b-\	.	8ee-\	.	.	.	.	.	.	.	.	.	.
8.r	.	8b-/	8g\	.	8.ee-\	.	8.gg\	.	.	.	.	.	.	.	.	.	.
.	.	8b-/J	8g\J	.	.	.	.	.	.	.	.	.	.	.	.	.	.
16E-\	.	.	.	.	16g\Jk	.	16b-\Jk	.	.	.	.	.	.	.	.	.	.
=42	=42	=42	=42	=42	=42	=42	=42	=42	=42	=42	=42	=42	=42	=42	=42	=42	=42
.	.	8qqb-/	8qqg\	.	8qqg/	.	8qqb-/	.	.	.	.	.	.	.	.	.	.
4BB-/	.	4a-/	4f\	.	(4f/	.	4a-/	.	.	.	.	.	2.ryy	.	.	.	.
8E-\L	.	4g/	4e-\	.	4e-/)	.	4g/	.	.	.	.	.	.	.	.	.	.
8BB-\	.	.	.	.	.	.	.	.	.	.	.	.	.	.	.	.	.
8GG\	.	4r	4ryy	.	4r	.	4r	.	.	.	.	.	.	.	.	.	.
8EE-\J	.	.	.	.	.	.	.	.	.	.	.	.	.	.	.	.	.
!	!	!LO:LB:g=original	!	!	!	!	!	!	!	!	!	!	!	!	!	!	!
=43	=43	=43	=43	=43	=43	=43	=43	=43	=43	=43	=43	=43	=43	=43	=43	=43	=43
4AA-X/	.	4r	4ryy	.	4r	.	8cc\L	.	.	.	.	.	2.ryy	.	.	.	.
.	.	.	.	.	.	.	(8een\	.	.	.	.	.	.	.	.	.	.
4r	.	4r	4ryy	.	4r	.	8ff\	.	.	.	.	.	.	.	.	.	.
.	.	.	.	.	.	.	8gg\	.	.	.	.	.	.	.	.	.	.
8.r	.	8.r	8.ryy	.	8.r	.	8.aa-\)	.	.	.	.	.	.	.	.	.	.
!LO:N:vis=8	!	!	!	!	!	!LO:DY:t=for	!	!	!	!	!	!	!	!	!	!	!
16A-X\	.	16cc/	16a-\	.	16a-/	f	16cc\Jk	f	.	.	.	.	.	.	.	.	.
!	!	!	!	!	!LO:LB:g=original	!	!	!	!	!	!	!	!	!	!	!	!
=44	=44	=44	=44	=44	=44	=44	=44	=44	=44	=44	=44	=44	=44	=44	=44	=44	=44
!	!	!	!	!	!	!	!	!	!	!	!	!	!	!	!	!	!
4G\	.	4b-/	4g\	.	4g/	.	8b-\L|	p	.	.	.	.	2.ryy	.	.	.	.
.	.	.	.	.	.	.	(8dd\	.	.	.	.	.	.	.	.	.	.
4r	.	4r	4ryy	.	4r	.	8ee-\	.	.	.	.	.	.	.	.	.	.
.	.	.	.	.	.	.	8ff\	.	.	.	.	.	.	.	.	.	.
8.r	.	8.r	8.ryy	.	8.r	.	8.gg\)	.	.	.	.	.	.	.	.	.	.
!	!	!	!	!	!	!LO:DY:t=p&colon;	!	!	!	!	!	!	!	!	!	!	!
16E-\	.	16b-/	16g\	.	16g/	p	16b-\Jk	f	.	.	.	.	.	.	.	.	.
=45	=45	=45	=45	=45	=45	=45	=45	=45	=45	=45	=45	=45	=45	=45	=45	=45	=45
!	!	!	!	!	!	!	!	!LO:DY:t=p&colon;	!	!	!	!	!	!	!	!	!
4E-\	.	4b-/	4g\	.	(4g/	.	(4b-/	p	1.r	.	1.r	.	2.ryy	1.r	.	1.r	.
4D\	.	4a-/	4f\	.	4f/	.	4a-/	.	.	.	.	.	.	.	.	.	.
4E-\	.	4g/	4e-\	.	4e-/)	.	4g/)	.	.	.	.	.	.	.	.	.	.
=46	=46	=46	=46	=46	=46	=46	=46	=46	=46	=46	=46	=46	=46	=46	=46	=46	=46
.	.	16qqe-/LL	16qqc\LL	.	.	.	.	.	.	.	.	.	.	.	.	.	.
.	.	16qqf/JJ	16qqd\JJ	.	.	.	.	.	.	.	.	.	.	.	.	.	.
4B-\	.	8g/L	8e-\L	.	(8e-/L	.	(8g/L	.	.	.	.	.	2.ryy	.	.	.	.
.	.	8f/	8d\	.	8d/	.	8f/	.	.	.	.	.	.	.	.	.	.
4BB-/	.	8e-/	8c\	.	8c/)	.	8e-/)	.	.	.	.	.	.	.	.	.	.
.	.	8d/	8B-\	.	8B-/|	.	8d/|	.	.	.	.	.	.	.	.	.	.
4r	.	8e-/	8c\	.	(8c/	.	8e-/	.	.	.	.	.	.	.	.	.	.
.	.	8f/J	8d\J	.	8d/J)	.	8f/J	.	.	.	.	.	.	.	.	.	.
*	*	*v	*v	*	*	*	*	*	*	*	*	*	*	*	*	*	*
!	!	!	!	!	!	!LO:LB:g=original	!	!	!	!	!	!	!	!	!	!
=47	=47	=47	=47	=47	=47	=47	=47	=47	=47	=47	=47	=47	=47	=47	=47	=47
!	!	!	!LO:DY:t=for&colon;	!	!LO:DY:t=fortiſ&colon;	!	!LO:DY:t=fortiſ.	!	!LO:DY:t=for	!	!LO:DY:t=for	!	!	!	!	!
4E-\	ff	4e-\	f	8.B-/L	ff	8.g/L	ff	4e-\	f	8.g\L	f	2.ryy	8.b-\L	.	8.gg\L	.
.	.	.	.	16c/Jk	.	16a-/Jk	.	.	.	16a-\Jk	.	.	16cc\Jk	.	16aa-\Jk	.
4BB-/	.	4B-\	.	8.A-/L	.	8.f/L	.	4B-/	.	8.f\L	.	.	8.a-X/L	.	8.ff\L	.
.	.	.	.	16B-/Jk	.	16g/Jk	.	.	.	16g\Jk	.	.	16b-/Jk	.	16gg\Jk	.
4EE-/	.	4E-/	.	4G/	.	4e-/	.	4E-/	.	4e-\	.	.	4g/	.	4ee-\	.
!	!	!	!	!LO:LB:g=original	!	!	!	!	!	!	!	!	!	!	!	!
=48	=48	=48	=48	=48	=48	=48	=48	=48	=48	=48	=48	=48	=48	=48	=48	=48
4BB-/	.	4r	.	8.f/L	.	8.a-/L	.	8.f\L	.	8.a-\L	.	2.ryy	8.ff\L	.	8.aa-\L	.
.	.	.	.	16g/Jk	.	16b-/Jk	.	16g\Jk	.	16b-\Jk	.	.	16gg\Jk	.	16bb-\Jk	.
4B-\	.	4b-\	.	8.e-/L	.	8.g/L	.	8.e-\L	.	8.g\L	.	.	8.ee-\L	.	8.gg\L	.
.	.	.	.	16f/Jk	.	16a-/Jk	.	16f\Jk	.	16a-\Jk	.	.	16ff\Jk	.	16aa-\Jk	.
4BB-/	.	4B-/	.	4d/	.	4f/	.	4B-/	.	4f\	.	.	4dd\	.	4ff\	.
=49	=49	=49	=49	=49	=49	=49	=49	=49	=49	=49	=49	=49	=49	=49	=49	=49
4E-\	.	4e-\	.	8.g/L	.	8.b-\L	.	8.g\L	.	8.b-\L	.	2.ryy	8.gg\L	.	8.bb-\L	.
!	!	!	!	!	!	!	!	!	!	!	!	!	!LO:TX:t=P:problem=♭ above	!	!	!
.	.	.	.	16a-/Jk	.	16cc\Jk	.	16a-\Jk	.	16cc\Jk	.	.	16aa-X\Jk	.	16ccc\Jk	.
4EE-/	.	4e-\	.	8g/L	.	8b-\L	.	8g\L	.	8b-\L	.	.	8gg\L	.	8bb-\L	.
.	.	.	.	8b-/	.	8gg\	.	8g\	.	8b-\	.	.	8gg\	.	8bb-\	.
8.r	.	4r	.	8.ee-/	.	8.ee-\	.	8g\	.	8b-\	.	.	8gg\	.	8bb-\	.
.	.	.	.	.	.	.	.	8g\J	.	8b-\J	.	.	8gg\J	.	8bb-\J	.
16E-\	.	.	.	16g/Jk	.	16b-\Jk	.	.	.	.	.	.	.	.	.	.
!	!	!	!	!	!	!	!	!	!	!	!	!	!	!	!LO:LB:g=original	!
=50	=50	=50	=50	=50	=50	=50	=50	=50	=50	=50	=50	=50	=50	=50	=50	=50
.	.	.	.	8qqg/	.	8qqb-/	.	8qqg/	.	8qqb-/	.	.	8qqgg/	.	8qqbb-/	.
(4D\	.	4B-/	.	4f/	.	4a-/	.	4f\	.	4a-\	.	2.ryy	4ff\	.	4aa-\	.
.	.	.	.	(16qqd/LL	.	16qqg/LL	.	.	.	.	.	.	.	.	.	.
.	.	.	.	16qqe-/JJ)	.	16qqa-/JJ	.	.	.	.	.	.	.	.	.	.
8E-\L	.	8e-\L	.	4e-/	.	4g/	.	4e-\	.	4g\	.	.	4ee-\	.	4gg\	.
8G\)	.	8b-\	.	.	.	.	.	.	.	.	.	.	.	.	.	.
8B-\	.	8g\	.	4r	.	4r	.	4r	.	4r	.	.	4r	.	4r	.
8e-\J	.	8e-\J	.	.	.	.	.	.	.	.	.	.	.	.	.	.
!	!	!	!	!	!	!	!	!LO:LB:g=original	!	!LO:LB:g=original	!	!	!	!	!	!
=51	=51	=51	=51	=51	=51	=51	=51	=51	=51	=51	=51	=51	=51	=51	=51	=51
!	!	!	!	!	!	!	!	!LO:TX:a:t=2	!	!LO:TX:a:t=2	!	!	!LO:TX:a:t=2	!	!LO:TX:a:t=2	!
4A-X\	.	4a-X\	.	8c/L	.	8cc\L	.	1.r	.	1.r	.	2.ryy	1.r	.	1.r	.
.	.	.	.	(8en/	.	(8een\	.	.	.	.	.	.	.	.	.	.
4r	.	4r	.	8f/	.	8ff\	.	.	.	.	.	.	.	.	.	.
.	.	.	.	8g/	.	8gg\	.	.	.	.	.	.	.	.	.	.
!	!	!	!	!	!	!	!	!	!	!	!	!	!	!	!	!
4r	.	4r	.	8a-X/	.	8aa-\	.	.	.	.	.	.	.	.	.	.
.	.	.	.	8b-/J)	.	8bb-\J)	.	.	.	.	.	.	.	.	.	.
!	!	!	!	!	!	!LO:LB:g=original	!	!	!	!	!	!	!	!	!	!
=52	=52	=52	=52	=52	=52	=52	=52	=52	=52	=52	=52	=52	=52	=52	=52	=52
!LO:TX:a:t=1	!	!	!	!	!	!	!	!	!	!	!	!	!	!	!	!
.	.	.	.	.	.	8qqcc/	.	.	.	.	.	.	.	.	.	.
2.r	.	2.r	.	4cc\	.	4ccc\	.	.	.	.	.	2.ryy	.	.	.	.
.	.	.	.	(8b-\L	.	8bb-\L	.	.	.	.	.	.	.	.	.	.
.	.	.	.	8a-X\	.	(8aa-X\	.	.	.	.	.	.	.	.	.	.
.	.	.	.	8g\	.	8gg\	.	.	.	.	.	.	.	.	.	.
.	.	.	.	8f\J)	.	8ff\J)	.	.	.	.	.	.	.	.	.	.
!	!	!	!	!LO:LB:g=original	!	!	!	!	!	!	!	!	!	!	!	!
=53	=53	=53	=53	=53	=53	=53	=53	=53	=53	=53	=53	=53	=53	=53	=53	=53
4r	.	4r	.	8.b-\L	.	8.bb-\L	.	4r	.	4r	.	2.ryy	4r	.	4r	.
.	.	.	.	16g\Jk	.	16gg\Jk	.	.	.	.	.	.	.	.	.	.
*	*	*	*	*	*	*	*	*	*	*	*	*	*2\right	*	*	*
4B-\	.	4b-\	.	4e-/	.	4ee-\	.	4e-\	.	4g\	.	.	2b-\	.	4gg\	.
.	.	.	.	8qqb-/	.	8qqgg/	.	.	.	.	.	.	.	.	.	.
4BB-/	.	4B-/	.	4a-/	.	4ff\	.	4B-/	.	4f\	.	.	.	.	4ff\	.
=54	=54	=54	=54	=54	=54	=54	=54	=54	=54	=54	=54	=54	=54	=54	=54	=54
2.E-\	p	4e-\	.	4g/	.	4ee-\	.	4G/	.	4e-\	.	2.ryy	4g/	pp	4ee-\	.
!	!	!	!	!	!	!	!LO:DY:t=p&colon;	!	!	!	!	!	!	!	!	!
.	.	4r	.	4.g/	pp	4.b-\	p	4r	.	4r	.	.	4.g/	.	4.b-/	p
.	.	4r	.	.	.	.	.	4r	.	4r	.	.	.	.	.	.
.	.	.	.	8f/	.	8a-/	.	.	.	.	.	.	8f/	.	8a-X/	.
!	!	!LO:LB:g=original	!	!	!	!	!	!	!	!	!	!	!	!	!	!
=55	=55	=55	=55	=55	=55	=55	=55	=55	=55	=55	=55	=55	=55	=55	=55	=55
!	!	!LO:TX:t=P:problem=kolejność znaków B- e- a-	!	!	!	!	!	!	!	!	!	!	!	!	!	!
.	.	.	.	.	.	.	.	.	.	.	.	.	8qqa-/	.	.	.
!	!	!	!LO:DY:t=pp&colon;	!	!	!	!	!	!	!	!	!	!	!	!	!
2BB-/	.	2.B-/	pp	(2f/	.	2a-/	.	2.E-/	pp	2.e-/	pp	2.ryy	(2f/	.	(2a-/	.
4E-\	.	.	.	4e-/)	.	4g/	.	.	.	.	.	.	4e-/)	.	4g/)	pp
==	==	==	==	==	==	==	==	==	==	==	==	==	==	==	==	==
*-	*-	*-	*-	*-	*-	*-	*-	*-	*-	*-	*-	*-	*-	*-	*-	*-
!!!system-decoration: [(g1)][(g2)][(g3)]
!!!RDF**kern: | = vertical stroke
!!!ENC: Andrzej Kubiczek
!!!END: 2020-09-13
!!!ENC: Marta Lawrence
!!!END: 2022-01-27
